src/shared/assets/upgrades.svg

<svg width="24" height="24" viewBox="0 0 24 24" fill="none" xmlns="http://www.w3.org/2000/svg">
<g clip-path="url(#clip0_4_1891)">
<path d="M16.3868 12.3516C14.6485 13.5273 11.336 15.0156 9.52348 15.7891L8.15629 14.4219C8.95316 12.6211 10.4688 9.34375 11.6446 7.60937C14.0743 4.03125 17.5625 3.63672 20.0352 3.96484C20.3672 6.4375 19.9688 9.92578 16.3907 12.3516H16.3868ZM6.62894 13.25C6.48832 13.5625 6.36332 13.8438 6.26176 14.0781C6.05863 14.543 6.1641 15.082 6.52348 15.4414L8.50394 17.4219C8.85941 17.7773 9.39066 17.8867 9.8516 17.6914C10.1055 17.5859 10.4102 17.457 10.75 17.3086V21.0664C10.75 21.4023 10.9297 21.7148 11.2227 21.8828C11.5157 22.0508 11.875 22.0469 12.1641 21.875L15.6211 19.8242C16.4766 19.3164 17 18.3984 17 17.4062V14.1914C17.1563 14.0938 17.3008 14 17.4414 13.9062C22.1602 10.707 22.3164 5.94141 21.793 3.09766C21.711 2.64453 21.3555 2.29297 20.9024 2.20703C18.0586 1.68359 13.293 1.83984 10.0938 6.55859C10 6.69922 9.90238 6.84375 9.80863 7H6.6016C5.60941 7 4.68754 7.52344 4.18363 8.37891L2.13285 11.8359C1.96098 12.125 1.95707 12.4844 2.12504 12.7773C2.29301 13.0703 2.6016 13.25 2.93754 13.25H6.62894ZM17.9375 7.625C17.9375 7.2106 17.7729 6.81317 17.4799 6.52014C17.1869 6.22712 16.7894 6.0625 16.375 6.0625C15.9606 6.0625 15.5632 6.22712 15.2702 6.52014C14.9772 6.81317 14.8125 7.2106 14.8125 7.625C14.8125 8.0394 14.9772 8.43683 15.2702 8.72985C15.5632 9.02288 15.9606 9.1875 16.375 9.1875C16.7894 9.1875 17.1869 9.02288 17.4799 8.72985C17.7729 8.43683 17.9375 8.0394 17.9375 7.625Z" fill="#3E414F"/>
</g>
<defs>
<clipPath id="clip0_4_1891">
<rect width="20" height="20" fill="white" transform="translate(2 2)"/>
</clipPath>
</defs>
</svg>

<svg xmlns="http://www.w3.org/2000/svg" width="24" height="24" fill="currentColor" viewBox="0 0 24 24">
  <g clip-path="url(#a)">
    <path d="M16.387 12.352c-1.739 1.175-5.051 2.664-6.864 3.437l-1.367-1.367c.797-1.8 2.313-5.078 3.489-6.813 2.43-3.578 5.918-3.972 8.39-3.644.332 2.473-.066 5.96-3.644 8.387h-.004Zm-9.758.898c-.14.313-.266.594-.367.828a1.23 1.23 0 0 0 .261 1.363l1.98 1.98c.356.356.888.466 1.349.27.253-.105.558-.234.898-.382v3.757c0 .336.18.649.473.817a.933.933 0 0 0 .941-.008l3.457-2.05A2.811 2.811 0 0 0 17 17.405v-3.215c.156-.097.3-.191.441-.285 4.72-3.199 4.875-7.965 4.352-10.808a1.11 1.11 0 0 0-.89-.891c-2.844-.523-7.61-.367-10.81 4.352-.093.14-.19.285-.284.441H6.602c-.993 0-1.914.523-2.418 1.379l-2.051 3.457a.935.935 0 0 0 .805 1.414h3.69Zm11.309-5.625a1.563 1.563 0 1 0-3.126 0 1.563 1.563 0 0 0 3.126 0Z"/>
  </g>
  <defs>
    <clipPath id="a">
      <path d="M2 2h20v20H2z"/>
    </clipPath>
  </defs>
</svg>
